X:12
T:Dolly My Comical Bride
C:from Edward Winder's ms2
M:6/8
L:1/8
K:C
G2G ABc|BAB c2G|G2G ABc|Bdc B3|c2c BAG|BAG A2B|c2c Bdc|BAB c3:|
|:g2g f3/2e/2d|dAB c2c|g2g f3/2e/2d|
dAB c3|c2c BAG|BAG A2B|c2c Bdc|BAB c3:|

